X: 98
T: Their Votes Could Be Heard
C: Teton Sioux band 1911-1914
N: Derived from sioux098.krn
O: South Dakota, U.S.A.
N: Teton Sioux Music by Frances Densmore, 1918
Z: transcribed to **kern format by Craig Sapp
L: 1/8
M: 3/4
Q: 1/4=58
K: Db clef=bass
%%linebreak <none>
F2F< FF2 [I:setbarnb 2]| 
F/> E/ E/ E/ (E/> D/) DD2 | 
E2E< EE2 ||  
[M:2/4]E/> E/ D/ D/ (D/> B,/) B, ||  
[M:3/4]B,2B, B, B, B, | 
E2E/> C/ D (E/> B,/) B, | 
B,2F, B, B, B, ||  
[M:2/4]F,> F,F,2 ||  
[M:3/4](3E E E E E D3/ D/ ||  
[M:2/4]B,2z2 | 
(3B, B, B, F,3/ B,/ | 
B,2C B, | 
F,> F,F,2 |]  



